src/assets/images/components/section/home/SectionHomeMain/illustration-message.svg

<svg fill="none" height="83" viewBox="0 0 271 83" width="271" xmlns="http://www.w3.org/2000/svg" xmlns:xlink="http://www.w3.org/1999/xlink"><linearGradient id="a" gradientUnits="userSpaceOnUse" x1="135.5" x2="135.5" y1="0" y2="82.4527"><stop offset="0" stop-color="#f6f7fb"/><stop offset="1" stop-color="#f6f7fb" stop-opacity=".95"/></linearGradient><linearGradient id="b" gradientUnits="userSpaceOnUse" x1="135.5" x2="135.5" y1="0" y2="82.4527"><stop offset="0" stop-color="#81899b"/><stop offset="1" stop-color="#81899b" stop-opacity=".49"/></linearGradient><rect fill="url(#a)" height="82.4527" rx="30" width="271"/><path d="m25.5893 39h10.7943v-2.6489h-7.7922v-3.9954h7.0196v-2.5606h-7.0196v-3.6643h7.6818v-2.6489h-10.6839zm12.6388 0h2.8917v-15.9596h-2.8917zm6.5796-12.3836c.9492 0 1.6335-.7284 1.6335-1.6555s-.6843-1.6556-1.6335-1.6556c-.9491 0-1.6334.7285-1.6334 1.6556s.6843 1.6555 1.6334 1.6555zm-1.4568 12.3836h2.9137v-10.6618h-2.9137zm4.3937 0h9.0063v-2.5164h-4.8563l4.9887-6.4898v-1.6556h-8.7413v2.5165h4.5914l-4.9888 6.4897zm14.9669.2207c1.2583 0 2.3399-.4635 3.0904-1.2361v1.0154h2.8696v-10.6618h-2.8696v1.0154c-.7505-.7726-1.8321-1.2361-3.1124-1.2361-2.8917 0-5.0991 2.4061-5.0991 5.5626 0 3.1566 2.2074 5.5406 5.1211 5.5406zm.5298-2.6709c-1.5893 0-2.693-1.192-2.693-2.8917 0-1.6777 1.1037-2.8697 2.693-2.8697 1.6114 0 2.7151 1.192 2.7151 2.8697 0 1.6997-1.1037 2.8917-2.7151 2.8917zm7.6573 2.4502h2.8696v-.9492c.7506.7285 1.8101 1.1699 3.0463 1.1699 2.9579 0 5.1653-2.384 5.1653-5.5406 0-3.1565-2.2074-5.5626-5.1653-5.5626-1.2141 0-2.2737.4194-3.0242 1.1258v-6.2029h-2.8917zm5.4302-2.4502c-1.6114 0-2.7151-1.192-2.7151-2.8917 0-1.6777 1.1037-2.8697 2.6931-2.8697 1.5893 0 2.7151 1.192 2.7151 2.8697 0 1.6997-1.1258 2.8917-2.6931 2.8917zm12.315 2.6709c1.7217 0 3.2448-.618 4.3044-1.8321l-1.6997-1.6997c-.6402.7284-1.5673 1.1037-2.6268 1.1037-1.479 0-2.5165-.7726-2.8696-2.097l7.7921-.0221c.1104-.4856.1545-.883.1545-1.2582 0-3.0683-2.2074-5.3199-5.2536-5.3199-3.1566 0-5.6068 2.4061-5.6068 5.5627 0 3.2228 2.4723 5.5626 5.8055 5.5626zm-.1987-8.7192c1.3465 0 2.1853.7064 2.4723 2.0308h-5.1653c.3531-1.2582 1.3244-2.0087 2.693-2.0308zm8.041 8.4985h2.8917v-8.1233h2.4942v-2.5385h-2.4942v-4.4369h-2.8917v4.4369h-2.4944v2.5385h2.4944zm6.6809 0h2.892v-6.1145c0-1.2582.905-2.1412 2.141-2.1412 1.258 0 2.141.883 2.141 2.1412v6.1145h2.892v-6.7547c0-2.4281-1.722-4.1278-4.15-4.1278-1.236 0-2.296.4415-3.024 1.2141v-6.2912h-2.892z" fill="#121f3e"/><path d="m125.992 39.1472c2.252 0 3.856-1.4569 3.856-3.4583 0-1.8395-1.163-3.3553-3.341-3.3553-.706 0-1.236.1178-1.648.3679l.28-2.487h4.135v-1.5157h-5.519l-.456 4.6797.927.9271c.589-.4415 1.163-.6034 1.958-.6034 1.03 0 1.957.6328 1.957 1.8984 0 1.2067-.898 1.9572-2.178 1.9572-.942 0-1.737-.3973-2.149-1.0301l-1.148 1.1479c.766.9565 1.899 1.4716 3.326 1.4716zm6.371-4.5473c.633 0 1.074-.4709 1.074-1.089s-.441-1.089-1.074-1.089-1.074.4709-1.074 1.089.441 1.089 1.074 1.089zm0 4.5473c.633 0 1.074-.471 1.074-1.089 0-.6181-.441-1.089-1.074-1.089s-1.074.4709-1.074 1.089c0 .618.441 1.089 1.074 1.089zm6.85 0c2.325 0 4.194-2.0603 4.194-5.2978 0-3.2523-1.883-5.2978-4.223-5.2978s-4.209 2.0455-4.209 5.2831c0 3.2375 1.898 5.3125 4.238 5.3125zm-.029-1.5894c-1.501 0-2.502-1.2214-2.502-3.7231 0-2.487 1.001-3.6938 2.502-3.6938s2.516 1.2215 2.516 3.6938c0 2.5017-1 3.7231-2.516 3.7231zm5.243 1.4422h6.99v-1.5158h-4.356l2.458-2.5458c1.28-1.3392 1.692-2.0456 1.692-3.3553 0-1.7953-1.28-3.0315-3.194-3.0315-1.559 0-2.737.7211-3.531 2.1191l1.177.9713c.589-1.0301 1.31-1.5158 2.296-1.5158.927 0 1.589.5592 1.589 1.4716 0 .7505-.383 1.3686-1.324 2.3693l-3.797 4.0322zm8.447 2.9432h1.619v-3.7084c.5.5739 1.265.9124 2.163.9124 1.913 0 3.399-1.6041 3.399-3.6643 0-2.075-1.486-3.6938-3.399-3.6938-.898 0-1.663.3532-2.163.9271v-.7799h-1.619zm3.517-4.3265c-1.192 0-2.001-.883-2.001-2.1486 0-1.2655.809-2.1485 2.001-2.1485 1.177 0 2.002.883 2.002 2.1485 0 1.2656-.825 2.1486-2.002 2.1486zm5.019 1.3833h1.619v-4.2088c0-.9418.677-1.4863 1.545-1.4863.869 0 1.531.5445 1.531 1.4863v4.2088h1.619v-4.2088c0-.9418.677-1.4863 1.545-1.4863s1.53.5445 1.53 1.4863v4.2088h1.619v-4.562c0-1.6335-1.221-2.6489-2.737-2.6489-.986 0-1.825.4415-2.355 1.1773-.456-.7505-1.295-1.1773-2.266-1.1773-.824 0-1.545.3091-2.031.8683v-.7211h-1.619z" fill="#7d89b0"/><path d="m24.412 64.4526h2.0946l.9271-2.3177h5.1678l.91 2.3177h2.1289l-4.9103-12.0181h-1.3735zm3.7085-4.0346 1.9057-4.7901 1.8886 4.7901zm8.9818 4.0346h1.8885v-4.584c0-1.4078.7555-2.0603 1.8199-2.0603.4808 0 .8241.1374 1.1332.4464l1.2361-1.2705c-.5666-.6524-1.219-.9442-2.0431-.9442-.9614 0-1.6825.3777-2.1461 1.0301v-.8585h-1.8885zm10.5687.1717c1.2876 0 2.4723-.4807 3.2792-1.425l-1.2018-1.219c-.4979.5838-1.2533.8756-2.0946.8756-1.2361 0-2.1289-.6867-2.4036-1.8198h6.1464c.0687-.3434.103-.6181.103-.8928 0-2.3693-1.6482-4.1033-3.9316-4.1033-2.3865 0-4.2579 1.8714-4.2579 4.2921 0 2.4552 1.8886 4.2922 4.3609 4.2922zm-.1374-6.8503c1.1503 0 1.8714.6181 2.1118 1.7169h-4.3952c.2747-1.0645 1.116-1.7169 2.2834-1.7169zm11.3207 6.6786h1.0988l1.9228-4.9102 1.9229 4.9102h1.0988l3.3136-8.241h-1.9572l-1.9401 5.2022-1.8886-5.2022h-1.0988l-1.8885 5.2022-1.9401-5.2022h-1.9572zm14.1674.1717c1.2876 0 2.4723-.4807 3.2792-1.425l-1.2018-1.219c-.4979.5838-1.2533.8756-2.0946.8756-1.2361 0-2.1289-.6867-2.4036-1.8198h6.1464c.0687-.3434.103-.6181.103-.8928 0-2.3693-1.6482-4.1033-3.9316-4.1033-2.3865 0-4.2579 1.8714-4.2579 4.2921 0 2.4552 1.8886 4.2922 4.3609 4.2922zm-.1374-6.8503c1.1503 0 1.8714.6181 2.1118 1.7169h-4.3952c.2747-1.0645 1.1159-1.7169 2.2834-1.7169zm8.917 6.6786h1.8886v-4.584c0-1.4078.7554-2.0603 1.8199-2.0603.4807 0 .8241.1374 1.1331.4464l1.2362-1.2705c-.5666-.6524-1.219-.9442-2.0431-.9442-.9615 0-1.6826.3777-2.1461 1.0301v-.8585h-1.8886zm10.5687.1717c1.2877 0 2.4723-.4807 3.2792-1.425l-1.2018-1.219c-.4979.5838-1.2533.8756-2.0946.8756-1.2361 0-2.1289-.6867-2.4036-1.8198h6.1464c.0687-.3434.103-.6181.103-.8928 0-2.3693-1.6482-4.1033-3.9316-4.1033-2.3864 0-4.2578 1.8714-4.2578 4.2921 0 2.4552 1.8885 4.2922 4.3608 4.2922zm-.1373-6.8503c1.1503 0 1.8714.6181 2.1117 1.7169h-4.3952c.2747-1.0645 1.116-1.7169 2.2835-1.7169zm8.9303 6.8503c1.048 0 1.941-.3949 2.524-1.0644v.8927h1.889v-8.241h-1.889v.91c-.583-.6696-1.476-1.0816-2.524-1.0816-2.2314 0-3.9655 1.8885-3.9655 4.3093 0 2.4036 1.7341 4.275 3.9655 4.275zm.31-1.7855c-1.374 0-2.3354-1.0301-2.3354-2.5067 0-1.4765.9614-2.5066 2.3354-2.5066 1.39 0 2.334 1.0301 2.334 2.5066 0 1.4766-.944 2.5067-2.334 2.5067zm9.65 1.7855c1.047 0 1.94-.3949 2.523-1.0644v.8927h1.889v-12.3614h-1.889v5.0304c-.583-.6696-1.476-1.0816-2.523-1.0816-2.232 0-3.966 1.8885-3.966 4.3093 0 2.4036 1.734 4.275 3.966 4.275zm.309-1.7855c-1.374 0-2.335-1.0301-2.335-2.5067 0-1.4765.961-2.5066 2.335-2.5066 1.39 0 2.335 1.0301 2.335 2.5066 0 1.4766-.945 2.5067-2.335 2.5067zm6.405 5.0476h2.095l1.528-3.3479 3.828-8.3269h-2.094l-2.232 5.3739-2.112-5.3739h-2.077l3.124 7.4169zm13.371-3.4338h1.888v-6.5241h1.975v-1.7169h-1.975v-3.4337h-1.888v3.4337h-1.975v1.7169h1.975zm8.777.1717c2.438 0 4.327-1.8885 4.327-4.3093 0-2.4036-1.906-4.275-4.327-4.275s-4.309 1.8885-4.309 4.275c0 2.4036 1.906 4.3093 4.309 4.3093zm0-1.8199c-1.39 0-2.369-1.0301-2.369-2.4894 0-1.425.979-2.4552 2.369-2.4552 1.391 0 2.387 1.013 2.387 2.4552 0 1.4593-.979 2.4894-2.387 2.4894zm9.334 1.6482h1.889v-12.3614h-1.889zm7.442.1717c1.047 0 1.94-.3949 2.523-1.0644v.8927h1.889v-8.241h-1.889v.91c-.583-.6696-1.476-1.0816-2.523-1.0816-2.232 0-3.966 1.8885-3.966 4.3093 0 2.4036 1.734 4.275 3.966 4.275zm.309-1.7855c-1.374 0-2.335-1.0301-2.335-2.5067 0-1.4765.961-2.5066 2.335-2.5066 1.39 0 2.335 1.0301 2.335 2.5066 0 1.4766-.945 2.5067-2.335 2.5067zm9.581 1.7855c2.129 0 3.588-1.4593 3.588-3.6226v-4.7901h-1.888v4.7043c0 1.219-.601 1.8885-1.7 1.8885-1.081 0-1.7-.6867-1.7-1.8885v-4.7043h-1.888v4.7901c0 2.1289 1.476 3.6226 3.588 3.6226zm5.487-.1717h1.889v-4.7557c0-1.0988.79-1.8886 1.888-1.8886 1.099 0 1.872.7898 1.872 1.8886v4.7557h1.888v-5.1677c0-1.6139-1.339-3.2449-3.193-3.2449-1.013 0-1.889.412-2.455 1.1159v-.9443h-1.889zm13.251.1717c1.27 0 2.438-.515 3.21-1.425l-1.236-1.2533c-.48.5666-1.167.8584-1.974.8584-1.408 0-2.387-1.0129-2.387-2.4723 0-1.4593.979-2.4723 2.387-2.4723.807 0 1.494.2919 1.974.8585l1.236-1.2533c-.772-.91-1.94-1.425-3.21-1.425-2.455 0-4.327 1.8714-4.327 4.2921 0 2.4208 1.872 4.2922 4.327 4.2922zm4.572-.1717h1.888v-4.7557c0-1.0988.79-1.8886 1.889-1.8886s1.871.7898 1.871 1.8886v4.7557h1.889v-5.1677c0-1.9058-1.356-3.2449-3.193-3.2449-1.013 0-1.889.412-2.456 1.1159v-5.0647h-1.888zm15.52-3.9831h1.631l.12-1.8542c1.563-.5323 2.524-1.7169 2.524-3.3136 0-1.9916-1.511-3.3822-3.674-3.3822-1.683 0-3.022.8241-3.708 2.3006l1.373 1.1331c.464-1.0473 1.236-1.5967 2.232-1.5967 1.116 0 1.837.6696 1.837 1.6826 0 1.0301-.755 1.7168-1.871 1.7168h-.464zm.807 4.1548c.738 0 1.253-.5494 1.253-1.2705 0-.721-.515-1.2704-1.253-1.2704s-1.253.5494-1.253 1.2704c0 .7211.515 1.2705 1.253 1.2705z" fill="#121f3e"/><rect height="80.9527" rx="29.25" stroke="url(#b)" stroke-opacity=".2" stroke-width="1.5" width="269.5" x=".75" y=".75"/></svg>

<svg width="271" height="83" viewBox="0 0 271 83" fill="none" xmlns="http://www.w3.org/2000/svg">
<rect width="271" height="82.4527" rx="30" fill="url(#paint0_linear_946_2310)"/>
<path d="M25.5893 39H36.3836V36.3511H28.5914V32.3557H35.611V29.7951H28.5914V26.1308H36.2732V23.4819H25.5893V39ZM38.2281 39H41.1198V23.0404H38.2281V39ZM44.8077 26.6164C45.7569 26.6164 46.4412 25.888 46.4412 24.9609C46.4412 24.0338 45.7569 23.3053 44.8077 23.3053C43.8586 23.3053 43.1743 24.0338 43.1743 24.9609C43.1743 25.888 43.8586 26.6164 44.8077 26.6164ZM43.3509 39H46.2646V28.3382H43.3509V39ZM47.7446 39H56.7509V36.4836H51.8946L56.8833 29.9938V28.3382H48.142V30.8547H52.7334L47.7446 37.3444V39ZM62.7115 39.2207C63.9698 39.2207 65.0514 38.7572 65.8019 37.9846V39H68.6715V28.3382H65.8019V29.3536C65.0514 28.581 63.9698 28.1175 62.6895 28.1175C59.7978 28.1175 57.5904 30.5236 57.5904 33.6801C57.5904 36.8367 59.7978 39.2207 62.7115 39.2207ZM63.2413 36.5498C61.652 36.5498 60.5483 35.3578 60.5483 33.6581C60.5483 31.9804 61.652 30.7884 63.2413 30.7884C64.8527 30.7884 65.9564 31.9804 65.9564 33.6581C65.9564 35.3578 64.8527 36.5498 63.2413 36.5498ZM70.8986 39H73.7682V38.0508C74.5188 38.7793 75.5783 39.2207 76.8145 39.2207C79.7724 39.2207 81.9798 36.8367 81.9798 33.6801C81.9798 30.5236 79.7724 28.1175 76.8145 28.1175C75.6004 28.1175 74.5408 28.5369 73.7903 29.2433V23.0404L70.8986 23.0404V39ZM76.3288 36.5498C74.7174 36.5498 73.6137 35.3578 73.6137 33.6581C73.6137 31.9804 74.7174 30.7884 76.3068 30.7884C77.8961 30.7884 79.0219 31.9804 79.0219 33.6581C79.0219 35.3578 77.8961 36.5498 76.3288 36.5498ZM88.6438 39.2207C90.3655 39.2207 91.8886 38.6027 92.9482 37.3886L91.2485 35.6889C90.6083 36.4173 89.6812 36.7926 88.6217 36.7926C87.1427 36.7926 86.1052 36.02 85.7521 34.6956L93.5442 34.6735C93.6546 34.1879 93.6987 33.7905 93.6987 33.4153C93.6987 30.347 91.4913 28.0954 88.4451 28.0954C85.2885 28.0954 82.8383 30.5015 82.8383 33.6581C82.8383 36.8809 85.3106 39.2207 88.6438 39.2207ZM88.4451 30.5015C89.7916 30.5015 90.6304 31.2079 90.9174 32.5323H85.7521C86.1052 31.2741 87.0765 30.5236 88.4451 30.5015ZM96.4861 39H99.3778V30.8767H101.872V28.3382H99.3778V23.9013H96.4861V28.3382H93.9917V30.8767H96.4861V39ZM103.167 39H106.059V32.8855C106.059 31.6273 106.964 30.7443 108.2 30.7443C109.458 30.7443 110.341 31.6273 110.341 32.8855V39H113.233V32.2453C113.233 29.8172 111.511 28.1175 109.083 28.1175C107.847 28.1175 106.787 28.559 106.059 29.3316V23.0404L103.167 23.0404V39Z" fill="#121F3E"/>
<path d="M125.992 39.1472C128.244 39.1472 129.848 37.6903 129.848 35.6889C129.848 33.8494 128.685 32.3336 126.507 32.3336C125.801 32.3336 125.271 32.4514 124.859 32.7015L125.139 30.2145H129.274V28.6988H123.755L123.299 33.3785L124.226 34.3056C124.815 33.8641 125.389 33.7022 126.184 33.7022C127.214 33.7022 128.141 34.335 128.141 35.6006C128.141 36.8073 127.243 37.5578 125.963 37.5578C125.021 37.5578 124.226 37.1605 123.814 36.5277L122.666 37.6756C123.432 38.6321 124.565 39.1472 125.992 39.1472ZM132.363 34.5999C132.996 34.5999 133.437 34.129 133.437 33.5109C133.437 32.8928 132.996 32.4219 132.363 32.4219C131.73 32.4219 131.289 32.8928 131.289 33.5109C131.289 34.129 131.73 34.5999 132.363 34.5999ZM132.363 39.1472C132.996 39.1472 133.437 38.6762 133.437 38.0582C133.437 37.4401 132.996 36.9692 132.363 36.9692C131.73 36.9692 131.289 37.4401 131.289 38.0582C131.289 38.6762 131.73 39.1472 132.363 39.1472ZM139.213 39.1472C141.538 39.1472 143.407 37.0869 143.407 33.8494C143.407 30.5971 141.524 28.5516 139.184 28.5516C136.844 28.5516 134.975 30.5971 134.975 33.8347C134.975 37.0722 136.873 39.1472 139.213 39.1472ZM139.184 37.5578C137.683 37.5578 136.682 36.3364 136.682 33.8347C136.682 31.3477 137.683 30.1409 139.184 30.1409C140.685 30.1409 141.7 31.3624 141.7 33.8347C141.7 36.3364 140.7 37.5578 139.184 37.5578ZM144.427 39H151.417V37.4842H147.061L149.519 34.9384C150.799 33.5992 151.211 32.8928 151.211 31.5831C151.211 29.7878 149.931 28.5516 148.017 28.5516C146.458 28.5516 145.28 29.2727 144.486 30.6707L145.663 31.642C146.252 30.6119 146.973 30.1262 147.959 30.1262C148.886 30.1262 149.548 30.6854 149.548 31.5978C149.548 32.3483 149.165 32.9664 148.224 33.9671L144.427 37.9993V39ZM152.874 41.9432H154.493V38.2348C154.993 38.8087 155.758 39.1472 156.656 39.1472C158.569 39.1472 160.055 37.5431 160.055 35.4829C160.055 33.4079 158.569 31.7891 156.656 31.7891C155.758 31.7891 154.993 32.1423 154.493 32.7162V31.9363H152.874V41.9432ZM156.391 37.6167C155.199 37.6167 154.39 36.7337 154.39 35.4681C154.39 34.2026 155.199 33.3196 156.391 33.3196C157.568 33.3196 158.393 34.2026 158.393 35.4681C158.393 36.7337 157.568 37.6167 156.391 37.6167ZM161.41 39H163.029V34.7912C163.029 33.8494 163.706 33.3049 164.574 33.3049C165.443 33.3049 166.105 33.8494 166.105 34.7912V39H167.724V34.7912C167.724 33.8494 168.401 33.3049 169.269 33.3049C170.137 33.3049 170.799 33.8494 170.799 34.7912V39H172.418V34.438C172.418 32.8045 171.197 31.7891 169.681 31.7891C168.695 31.7891 167.856 32.2306 167.326 32.9664C166.87 32.2159 166.031 31.7891 165.06 31.7891C164.236 31.7891 163.515 32.0982 163.029 32.6574V31.9363H161.41V39Z" fill="#7D89B0"/>
<path d="M24.412 64.4526H26.5066L27.4337 62.1349H32.6015L33.5115 64.4526H35.6404L30.7301 52.4345H29.3566L24.412 64.4526ZM28.1205 60.418L30.0262 55.6279L31.9148 60.418H28.1205ZM37.1023 64.4526H38.9908V59.8686C38.9908 58.4608 39.7463 57.8083 40.8107 57.8083C41.2915 57.8083 41.6348 57.9457 41.9439 58.2547L43.18 56.9842C42.6134 56.3318 41.961 56.04 41.1369 56.04C40.1755 56.04 39.4544 56.4177 38.9908 57.0701V56.2116H37.1023V64.4526ZM47.671 64.6243C48.9586 64.6243 50.1433 64.1436 50.9502 63.1993L49.7484 61.9803C49.2505 62.5641 48.4951 62.8559 47.6538 62.8559C46.4177 62.8559 45.5249 62.1692 45.2502 61.0361H51.3966C51.4653 60.6927 51.4996 60.418 51.4996 60.1433C51.4996 57.774 49.8514 56.04 47.568 56.04C45.1815 56.04 43.3101 57.9114 43.3101 60.3321C43.3101 62.7873 45.1987 64.6243 47.671 64.6243ZM47.5336 57.774C48.6839 57.774 49.405 58.3921 49.6454 59.4909H45.2502C45.5249 58.4264 46.3662 57.774 47.5336 57.774ZM58.8543 64.4526H59.9531L61.8759 59.5424L63.7988 64.4526H64.8976L68.2112 56.2116H66.254L64.3139 61.4138L62.4253 56.2116H61.3265L59.438 61.4138L57.4979 56.2116H55.5407L58.8543 64.4526ZM73.0217 64.6243C74.3093 64.6243 75.494 64.1436 76.3009 63.1993L75.0991 61.9803C74.6012 62.5641 73.8458 62.8559 73.0045 62.8559C71.7684 62.8559 70.8756 62.1692 70.6009 61.0361H76.7473C76.816 60.6927 76.8503 60.418 76.8503 60.1433C76.8503 57.774 75.2021 56.04 72.9187 56.04C70.5322 56.04 68.6608 57.9114 68.6608 60.3321C68.6608 62.7873 70.5494 64.6243 73.0217 64.6243ZM72.8843 57.774C74.0346 57.774 74.7557 58.3921 74.9961 59.4909H70.6009C70.8756 58.4264 71.7168 57.774 72.8843 57.774ZM81.8013 64.4526H83.6899V59.8686C83.6899 58.4608 84.4453 57.8083 85.5098 57.8083C85.9905 57.8083 86.3339 57.9457 86.6429 58.2547L87.8791 56.9842C87.3125 56.3318 86.6601 56.04 85.836 56.04C84.8745 56.04 84.1534 56.4177 83.6899 57.0701V56.2116H81.8013V64.4526ZM92.37 64.6243C93.6577 64.6243 94.8423 64.1436 95.6492 63.1993L94.4474 61.9803C93.9495 62.5641 93.1941 62.8559 92.3528 62.8559C91.1167 62.8559 90.2239 62.1692 89.9492 61.0361H96.0956C96.1643 60.6927 96.1986 60.418 96.1986 60.1433C96.1986 57.774 94.5504 56.04 92.267 56.04C89.8806 56.04 88.0092 57.9114 88.0092 60.3321C88.0092 62.7873 89.8977 64.6243 92.37 64.6243ZM92.2327 57.774C93.383 57.774 94.1041 58.3921 94.3444 59.4909H89.9492C90.2239 58.4264 91.0652 57.774 92.2327 57.774ZM101.163 64.6243C102.211 64.6243 103.104 64.2294 103.687 63.5599V64.4526H105.576V56.2116H103.687V57.1216C103.104 56.452 102.211 56.04 101.163 56.04C98.9316 56.04 97.1975 57.9285 97.1975 60.3493C97.1975 62.7529 98.9316 64.6243 101.163 64.6243ZM101.473 62.8388C100.099 62.8388 99.1376 61.8087 99.1376 60.3321C99.1376 58.8556 100.099 57.8255 101.473 57.8255C102.863 57.8255 103.807 58.8556 103.807 60.3321C103.807 61.8087 102.863 62.8388 101.473 62.8388ZM111.123 64.6243C112.17 64.6243 113.063 64.2294 113.646 63.5599V64.4526H115.535V52.0912H113.646V57.1216C113.063 56.452 112.17 56.04 111.123 56.04C108.891 56.04 107.157 57.9285 107.157 60.3493C107.157 62.7529 108.891 64.6243 111.123 64.6243ZM111.432 62.8388C110.058 62.8388 109.097 61.8087 109.097 60.3321C109.097 58.8556 110.058 57.8255 111.432 57.8255C112.822 57.8255 113.767 58.8556 113.767 60.3321C113.767 61.8087 112.822 62.8388 111.432 62.8388ZM117.837 67.8864H119.932L121.46 64.5385L125.288 56.2116H123.194L120.962 61.5855L118.85 56.2116H116.773L119.897 63.6285L117.837 67.8864ZM131.208 64.4526H133.096V57.9285H135.071V56.2116H133.096V52.7779H131.208V56.2116H129.233V57.9285H131.208V64.4526ZM139.985 64.6243C142.423 64.6243 144.312 62.7358 144.312 60.315C144.312 57.9114 142.406 56.04 139.985 56.04C137.564 56.04 135.676 57.9285 135.676 60.315C135.676 62.7186 137.582 64.6243 139.985 64.6243ZM139.985 62.8044C138.595 62.8044 137.616 61.7743 137.616 60.315C137.616 58.89 138.595 57.8598 139.985 57.8598C141.376 57.8598 142.372 58.8728 142.372 60.315C142.372 61.7743 141.393 62.8044 139.985 62.8044ZM149.319 64.4526H151.208V52.0912H149.319V64.4526ZM156.761 64.6243C157.808 64.6243 158.701 64.2294 159.284 63.5599V64.4526H161.173V56.2116H159.284V57.1216C158.701 56.452 157.808 56.04 156.761 56.04C154.529 56.04 152.795 57.9285 152.795 60.3493C152.795 62.7529 154.529 64.6243 156.761 64.6243ZM157.07 62.8388C155.696 62.8388 154.735 61.8087 154.735 60.3321C154.735 58.8556 155.696 57.8255 157.07 57.8255C158.46 57.8255 159.405 58.8556 159.405 60.3321C159.405 61.8087 158.46 62.8388 157.07 62.8388ZM166.651 64.6243C168.78 64.6243 170.239 63.165 170.239 61.0017V56.2116H168.351V60.9159C168.351 62.1349 167.75 62.8044 166.651 62.8044C165.57 62.8044 164.951 62.1177 164.951 60.9159V56.2116H163.063V61.0017C163.063 63.1306 164.539 64.6243 166.651 64.6243ZM172.138 64.4526H174.027V59.6969C174.027 58.5981 174.817 57.8083 175.915 57.8083C177.014 57.8083 177.787 58.5981 177.787 59.6969V64.4526H179.675V59.2849C179.675 57.671 178.336 56.04 176.482 56.04C175.469 56.04 174.593 56.452 174.027 57.1559V56.2116H172.138V64.4526ZM185.389 64.6243C186.659 64.6243 187.827 64.1093 188.599 63.1993L187.363 61.946C186.883 62.5126 186.196 62.8044 185.389 62.8044C183.981 62.8044 183.002 61.7915 183.002 60.3321C183.002 58.8728 183.981 57.8598 185.389 57.8598C186.196 57.8598 186.883 58.1517 187.363 58.7183L188.599 57.465C187.827 56.555 186.659 56.04 185.389 56.04C182.934 56.04 181.062 57.9114 181.062 60.3321C181.062 62.7529 182.934 64.6243 185.389 64.6243ZM189.961 64.4526H191.849V59.6969C191.849 58.5981 192.639 57.8083 193.738 57.8083C194.837 57.8083 195.609 58.5981 195.609 59.6969V64.4526H197.498V59.2849C197.498 57.3791 196.142 56.04 194.305 56.04C193.292 56.04 192.416 56.452 191.849 57.1559V52.0912H189.961V64.4526ZM205.481 60.4695H207.112L207.232 58.6153C208.795 58.083 209.756 56.8984 209.756 55.3017C209.756 53.3101 208.245 51.9195 206.082 51.9195C204.399 51.9195 203.06 52.7436 202.374 54.2201L203.747 55.3532C204.211 54.3059 204.983 53.7565 205.979 53.7565C207.095 53.7565 207.816 54.4261 207.816 55.4391C207.816 56.4692 207.061 57.1559 205.945 57.1559H205.481V60.4695ZM206.288 64.6243C207.026 64.6243 207.541 64.0749 207.541 63.3538C207.541 62.6328 207.026 62.0834 206.288 62.0834C205.55 62.0834 205.035 62.6328 205.035 63.3538C205.035 64.0749 205.55 64.6243 206.288 64.6243Z" fill="#121F3E"/>
<rect x="0.75" y="0.75" width="269.5" height="80.9527" rx="29.25" stroke="url(#paint1_linear_946_2310)" stroke-opacity="0.2" stroke-width="1.5"/>
<defs>
<linearGradient id="paint0_linear_946_2310" x1="135.5" y1="0" x2="135.5" y2="82.4527" gradientUnits="userSpaceOnUse">
<stop stop-color="#F6F7FB"/>
<stop offset="1" stop-color="#F6F7FB" stop-opacity="0.95"/>
</linearGradient>
<linearGradient id="paint1_linear_946_2310" x1="135.5" y1="0" x2="135.5" y2="82.4527" gradientUnits="userSpaceOnUse">
<stop stop-color="#81899B"/>
<stop offset="1" stop-color="#81899B" stop-opacity="0.49"/>
</linearGradient>
</defs>
</svg>
